X:175
T:Teelin Highland 2 (h)
B:NFID.173b
175teel_h2
S:F&MB
N:I changed last note of measure 5 from |A,| to |B,| and last note
of part B from |G,| to |G|.
L:1/8
M:C
R:hornpipe
Q:240
K:A=G
d|(3cde eg fdeA|cdef gfgA|(3Bcd ea fdfa|ge (3dcB c<AA:|
g|a2ea fd[ge][fd]|[ec]<A (3cBA c<efg|a2ea fdfa|ge (3dcB c<AAg|
[A2a2]ea fd[ge][fd]|[ec]<A (3cBA c<efg|(3agf ge fdfa|ge (3dcB c<AA||

%%%

